dist/svgs/devui-icons/op/add-manual-use-case.svg

<?xml version="1.0" encoding="UTF-8"?>
<svg width="16px" height="16px" viewBox="0 0 16 16" version="1.1" xmlns="http://www.w3.org/2000/svg" xmlns:xlink="http://www.w3.org/1999/xlink">
    <title>添加手工用例</title>
    <desc>Created with Sketch.</desc>
    <g id="添加手工用例" stroke="none" stroke-width="1" fill="none" fill-rule="evenodd">
        <g fill-rule="nonzero">
            <path d="M1.04198756,10.1629848 C0.466513719,9.56706421 0.483089098,8.61746139 1.0790097,8.04198756 C1.61014824,7.52907303 2.42225166,7.48648196 3,7.9052194 L3,1.5 C3,0.671572875 3.67157288,1.52179594e-16 4.5,0 C5.32842712,-1.52179594e-16 6,0.671572875 6,1.5 L6,4.47204419 C6,3.64361707 6.67157288,2.97204419 7.5,2.97204419 C8.32842712,2.97204419 9,3.64361707 9,4.47204419 C9,3.64361707 9.67157288,2.97204419 10.5,2.97204419 C11.3284271,2.97204419 12,3.64361707 12,4.47204419 C12,3.64361707 12.6715729,2.97204419 13.5,2.97204419 C14.3284271,2.97204419 15,3.64361707 15,4.47204419 L15,10 C15,13.3137085 12.3137085,16 9,16 C7.34264106,16 5.84223193,15.3280179 4.7563672,14.2416483 C4.52016435,14.0053357 3.2820378,12.6457812 1.04198756,10.1629848 Z M8,8 L6,8 L6,10 L8,10 L8,12 L10,12 L10,10 L12,10 L12,8 L10,8 L10,6 L8,6 L8,8 Z" id="合并形状" fill="#293040"></path>
        </g>
    </g>
</svg>

<svg xmlns="http://www.w3.org/2000/svg" viewBox="0 0 16 16"><path d="M1.042 10.163A1.5 1.5 0 013 7.905V1.5a1.5 1.5 0 013 0v2.972a1.5 1.5 0 013 0 1.5 1.5 0 013 0 1.5 1.5 0 013 0V10a6 6 0 01-10.244 4.242c-.236-.237-1.474-1.596-3.714-4.079zM8 8H6v2h2v2h2v-2h2V8h-2V6H8v2z"/></svg>
